images/3234817.svg

<?xml version="1.0" encoding="UTF-8"?>
<svg xmlns="http://www.w3.org/2000/svg" xmlns:xlink="http://www.w3.org/1999/xlink" width="300pt" height="300pt" viewBox="0 0 300 300" version="1.1">
<defs>
<g>
<symbol overflow="visible" id="glyph0-0">
<path style="stroke:none;" d="M 0.453125 1.59375 L 0.453125 -6.34375 L 4.953125 -6.34375 L 4.953125 1.59375 Z M 0.953125 1.09375 L 4.453125 1.09375 L 4.453125 -5.84375 L 0.953125 -5.84375 Z M 0.953125 1.09375 "/>
</symbol>
<symbol overflow="visible" id="glyph0-1">
<path style="stroke:none;" d="M 0.890625 -6.5625 L 2.078125 -6.5625 L 4.984375 -1.078125 L 4.984375 -6.5625 L 5.84375 -6.5625 L 5.84375 0 L 4.65625 0 L 1.75 -5.484375 L 1.75 0 L 0.890625 0 Z M 0.890625 -6.5625 "/>
</symbol>
<symbol overflow="visible" id="glyph0-2">
<path style="stroke:none;" d="M 0.890625 -6.5625 L 1.765625 -6.5625 L 1.765625 -3.875 L 5 -3.875 L 5 -6.5625 L 5.890625 -6.5625 L 5.890625 0 L 5 0 L 5 -3.125 L 1.765625 -3.125 L 1.765625 0 L 0.890625 0 Z M 0.890625 -6.5625 "/>
</symbol>
<symbol overflow="visible" id="glyph0-3">
<path style="stroke:none;" d="M 3.546875 -5.953125 C 2.898438 -5.953125 2.382812 -5.710938 2 -5.234375 C 1.625 -4.753906 1.4375 -4.101562 1.4375 -3.28125 C 1.4375 -2.445312 1.625 -1.789062 2 -1.3125 C 2.382812 -0.832031 2.898438 -0.59375 3.546875 -0.59375 C 4.191406 -0.59375 4.703125 -0.832031 5.078125 -1.3125 C 5.453125 -1.789062 5.640625 -2.445312 5.640625 -3.28125 C 5.640625 -4.101562 5.453125 -4.753906 5.078125 -5.234375 C 4.703125 -5.710938 4.191406 -5.953125 3.546875 -5.953125 Z M 3.546875 -6.6875 C 4.460938 -6.6875 5.195312 -6.375 5.75 -5.75 C 6.300781 -5.132812 6.578125 -4.3125 6.578125 -3.28125 C 6.578125 -2.238281 6.300781 -1.410156 5.75 -0.796875 C 5.195312 -0.179688 4.460938 0.125 3.546875 0.125 C 2.617188 0.125 1.878906 -0.179688 1.328125 -0.796875 C 0.773438 -1.410156 0.5 -2.238281 0.5 -3.28125 C 0.5 -4.3125 0.773438 -5.132812 1.328125 -5.75 C 1.878906 -6.375 2.617188 -6.6875 3.546875 -6.6875 Z M 3.546875 -6.6875 "/>
</symbol>
</g>
</defs>
<g id="surface37485">
<rect x="0" y="0" width="300" height="300" style="fill:rgb(100%,100%,100%);fill-opacity:1;stroke:none;"/>
<path style="fill:none;stroke-width:1.2;stroke-linecap:butt;stroke-linejoin:miter;stroke:rgb(0%,0%,0%);stroke-opacity:1;stroke-miterlimit:10;" d="M 239.683594 159.503906 L 261.882812 169.007812 "/>
<path style="fill:none;stroke-width:1.2;stroke-linecap:butt;stroke-linejoin:miter;stroke:rgb(0%,0%,0%);stroke-opacity:1;stroke-miterlimit:10;" d="M 220.355469 173.976562 L 239.683594 159.503906 "/>
<path style="fill:none;stroke-width:1.2;stroke-linecap:butt;stroke-linejoin:miter;stroke:rgb(0%,0%,0%);stroke-opacity:1;stroke-miterlimit:10;" d="M 261.882812 169.007812 L 263.316406 180.992188 "/>
<path style="fill:none;stroke-width:1.2;stroke-linecap:butt;stroke-linejoin:miter;stroke:rgb(0%,0%,100%);stroke-opacity:1;stroke-miterlimit:10;" d="M 263.316406 180.992188 L 264.75 192.980469 "/>
<path style="fill:none;stroke-width:1.2;stroke-linecap:butt;stroke-linejoin:miter;stroke:rgb(0%,0%,100%);stroke-opacity:1;stroke-miterlimit:10;" d="M 264.75 192.980469 L 255.085938 200.21875 "/>
<path style="fill:none;stroke-width:1.2;stroke-linecap:butt;stroke-linejoin:miter;stroke:rgb(0%,0%,0%);stroke-opacity:1;stroke-miterlimit:10;" d="M 255.085938 200.21875 L 245.421875 207.453125 "/>
<path style=" stroke:none;fill-rule:nonzero;fill:rgb(100%,100%,100%);fill-opacity:1;" d="M 257.75 187.480469 L 271.75 187.480469 L 271.75 198.480469 L 257.75 198.480469 Z M 257.75 187.480469 "/>
<g style="fill:rgb(0%,0%,100%);fill-opacity:1;">
  <use xlink:href="#glyph0-1" x="257.75" y="196.143555"/>
  <use xlink:href="#glyph0-2" x="264.727539" y="196.143555"/>
</g>
<path style="fill:none;stroke-width:1.2;stroke-linecap:butt;stroke-linejoin:miter;stroke:rgb(0%,0%,0%);stroke-opacity:1;stroke-miterlimit:10;" d="M 245.421875 207.453125 L 223.222656 197.949219 "/>
<path style="fill:none;stroke-width:1.2;stroke-linecap:butt;stroke-linejoin:miter;stroke:rgb(0%,0%,0%);stroke-opacity:1;stroke-miterlimit:10;" d="M 223.222656 197.949219 L 220.355469 173.976562 "/>
<path style="fill:none;stroke-width:1.2;stroke-linecap:butt;stroke-linejoin:miter;stroke:rgb(0%,0%,0%);stroke-opacity:1;stroke-miterlimit:10;" d="M 220.355469 173.976562 L 209.257812 169.222656 "/>
<path style="fill:none;stroke-width:1.2;stroke-linecap:butt;stroke-linejoin:miter;stroke:rgb(0%,0%,100%);stroke-opacity:1;stroke-miterlimit:10;" d="M 209.257812 169.222656 L 198.15625 164.472656 "/>
<path style="fill:none;stroke-width:1.2;stroke-linecap:butt;stroke-linejoin:miter;stroke:rgb(0%,0%,100%);stroke-opacity:1;stroke-miterlimit:10;" d="M 198.15625 164.472656 L 196.722656 152.484375 "/>
<path style="fill:none;stroke-width:1.2;stroke-linecap:butt;stroke-linejoin:miter;stroke:rgb(0%,0%,0%);stroke-opacity:1;stroke-miterlimit:10;" d="M 196.722656 152.484375 L 195.289062 140.496094 "/>
<path style=" stroke:none;fill-rule:nonzero;fill:rgb(100%,100%,100%);fill-opacity:1;" d="M 191.15625 158.972656 L 205.15625 158.972656 L 205.15625 169.972656 L 191.15625 169.972656 Z M 191.15625 158.972656 "/>
<g style="fill:rgb(0%,0%,100%);fill-opacity:1;">
  <use xlink:href="#glyph0-1" x="191.15625" y="167.635742"/>
  <use xlink:href="#glyph0-2" x="198.133789" y="167.635742"/>
</g>
<path style="fill:none;stroke-width:1.2;stroke-linecap:butt;stroke-linejoin:miter;stroke:rgb(0%,0%,0%);stroke-opacity:1;stroke-miterlimit:10;" d="M 195.289062 140.496094 L 204.953125 133.261719 "/>
<path style="fill:none;stroke-width:1.2;stroke-linecap:butt;stroke-linejoin:miter;stroke:rgb(0%,0%,100%);stroke-opacity:1;stroke-miterlimit:10;" d="M 204.953125 133.261719 L 214.617188 126.023438 "/>
<path style="fill:none;stroke-width:1.2;stroke-linecap:butt;stroke-linejoin:miter;stroke:rgb(0%,0%,0%);stroke-opacity:1;stroke-miterlimit:10;" d="M 193.816406 134.5 L 201.546875 128.714844 "/>
<path style="fill:none;stroke-width:1.2;stroke-linecap:butt;stroke-linejoin:miter;stroke:rgb(0%,0%,100%);stroke-opacity:1;stroke-miterlimit:10;" d="M 201.546875 128.714844 L 209.277344 122.925781 "/>
<path style="fill:none;stroke-width:1.2;stroke-linecap:butt;stroke-linejoin:miter;stroke:rgb(0%,0%,0%);stroke-opacity:1;stroke-miterlimit:10;" d="M 173.089844 130.992188 L 195.289062 140.496094 "/>
<path style="fill:none;stroke-width:1.2;stroke-linecap:butt;stroke-linejoin:miter;stroke:rgb(0%,0%,100%);stroke-opacity:1;stroke-miterlimit:10;" d="M 214.617188 126.023438 L 213.183594 114.039062 "/>
<path style="fill:none;stroke-width:1.2;stroke-linecap:butt;stroke-linejoin:miter;stroke:rgb(0%,0%,0%);stroke-opacity:1;stroke-miterlimit:10;" d="M 213.183594 114.039062 L 211.75 102.050781 "/>
<path style=" stroke:none;fill-rule:nonzero;fill:rgb(100%,100%,100%);fill-opacity:1;" d="M 211.617188 120.523438 L 218.617188 120.523438 L 218.617188 131.523438 L 211.617188 131.523438 Z M 211.617188 120.523438 "/>
<g style="fill:rgb(0%,0%,100%);fill-opacity:1;">
  <use xlink:href="#glyph0-1" x="211.617188" y="129.186523"/>
</g>
<path style="fill:none;stroke-width:1.2;stroke-linecap:butt;stroke-linejoin:miter;stroke:rgb(0%,0%,0%);stroke-opacity:1;stroke-miterlimit:10;" d="M 211.75 102.050781 L 200.648438 97.296875 "/>
<path style="fill:none;stroke-width:1.2;stroke-linecap:butt;stroke-linejoin:miter;stroke:rgb(0%,0%,100%);stroke-opacity:1;stroke-miterlimit:10;" d="M 200.648438 97.296875 L 189.550781 92.546875 "/>
<path style="fill:none;stroke-width:1.2;stroke-linecap:butt;stroke-linejoin:miter;stroke:rgb(0%,0%,0%);stroke-opacity:1;stroke-miterlimit:10;" d="M 207.292969 106.320312 L 198.414062 102.519531 "/>
<path style="fill:none;stroke-width:1.2;stroke-linecap:butt;stroke-linejoin:miter;stroke:rgb(0%,0%,100%);stroke-opacity:1;stroke-miterlimit:10;" d="M 198.414062 102.519531 L 189.535156 98.71875 "/>
<path style="fill:none;stroke-width:1.2;stroke-linecap:butt;stroke-linejoin:miter;stroke:rgb(0%,0%,100%);stroke-opacity:1;stroke-miterlimit:10;" d="M 189.550781 92.546875 L 179.886719 99.78125 "/>
<path style="fill:none;stroke-width:1.2;stroke-linecap:butt;stroke-linejoin:miter;stroke:rgb(0%,0%,0%);stroke-opacity:1;stroke-miterlimit:10;" d="M 179.886719 99.78125 L 170.222656 107.019531 "/>
<path style=" stroke:none;fill-rule:nonzero;fill:rgb(100%,100%,100%);fill-opacity:1;" d="M 186.550781 87.046875 L 193.550781 87.046875 L 193.550781 98.046875 L 186.550781 98.046875 Z M 186.550781 87.046875 "/>
<g style="fill:rgb(0%,0%,100%);fill-opacity:1;">
  <use xlink:href="#glyph0-1" x="186.550781" y="95.709961"/>
</g>
<path style="fill:none;stroke-width:1.2;stroke-linecap:butt;stroke-linejoin:miter;stroke:rgb(0%,0%,0%);stroke-opacity:1;stroke-miterlimit:10;" d="M 170.222656 107.019531 L 173.089844 130.992188 "/>
<path style="fill:none;stroke-width:1.2;stroke-linecap:butt;stroke-linejoin:miter;stroke:rgb(0%,0%,0%);stroke-opacity:1;stroke-miterlimit:10;" d="M 164.867188 110.089844 L 167.164062 129.269531 "/>
<path style="fill:none;stroke-width:1.2;stroke-linecap:butt;stroke-linejoin:miter;stroke:rgb(0%,0%,0%);stroke-opacity:1;stroke-miterlimit:10;" d="M 148.023438 97.515625 L 170.222656 107.019531 "/>
<path style="fill:none;stroke-width:1.2;stroke-linecap:butt;stroke-linejoin:miter;stroke:rgb(0%,0%,0%);stroke-opacity:1;stroke-miterlimit:10;" d="M 173.089844 130.992188 L 153.761719 145.464844 "/>
<path style="fill:none;stroke-width:1.2;stroke-linecap:butt;stroke-linejoin:miter;stroke:rgb(0%,0%,0%);stroke-opacity:1;stroke-miterlimit:10;" d="M 153.761719 145.464844 L 131.566406 135.960938 "/>
<path style="fill:none;stroke-width:1.2;stroke-linecap:butt;stroke-linejoin:miter;stroke:rgb(0%,0%,0%);stroke-opacity:1;stroke-miterlimit:10;" d="M 153.777344 139.292969 L 136.019531 131.691406 "/>
<path style="fill:none;stroke-width:1.2;stroke-linecap:butt;stroke-linejoin:miter;stroke:rgb(0%,0%,0%);stroke-opacity:1;stroke-miterlimit:10;" d="M 131.566406 135.960938 L 128.695312 111.988281 "/>
<path style="fill:none;stroke-width:1.2;stroke-linecap:butt;stroke-linejoin:miter;stroke:rgb(0%,0%,0%);stroke-opacity:1;stroke-miterlimit:10;" d="M 131.566406 135.960938 L 112.234375 150.433594 "/>
<path style="fill:none;stroke-width:1.2;stroke-linecap:butt;stroke-linejoin:miter;stroke:rgb(0%,0%,0%);stroke-opacity:1;stroke-miterlimit:10;" d="M 128.695312 111.988281 L 148.023438 97.515625 "/>
<path style="fill:none;stroke-width:1.2;stroke-linecap:butt;stroke-linejoin:miter;stroke:rgb(0%,0%,0%);stroke-opacity:1;stroke-miterlimit:10;" d="M 134.035156 115.089844 L 149.496094 103.511719 "/>
<path style="fill:none;stroke-width:1.2;stroke-linecap:butt;stroke-linejoin:miter;stroke:rgb(0%,0%,0%);stroke-opacity:1;stroke-miterlimit:10;" d="M 112.234375 150.433594 L 90.039062 140.933594 "/>
<path style="fill:none;stroke-width:1.2;stroke-linecap:butt;stroke-linejoin:miter;stroke:rgb(0%,0%,0%);stroke-opacity:1;stroke-miterlimit:10;" d="M 107.78125 154.707031 L 90.023438 147.105469 "/>
<path style="fill:none;stroke-width:1.2;stroke-linecap:butt;stroke-linejoin:miter;stroke:rgb(0%,0%,0%);stroke-opacity:1;stroke-miterlimit:10;" d="M 115.105469 174.410156 L 112.234375 150.433594 "/>
<path style="fill:none;stroke-width:1.2;stroke-linecap:butt;stroke-linejoin:miter;stroke:rgb(0%,0%,0%);stroke-opacity:1;stroke-miterlimit:10;" d="M 90.039062 140.933594 L 70.710938 155.402344 "/>
<path style="fill:none;stroke-width:1.2;stroke-linecap:butt;stroke-linejoin:miter;stroke:rgb(0%,0%,0%);stroke-opacity:1;stroke-miterlimit:10;" d="M 70.710938 155.402344 L 73.578125 179.378906 "/>
<path style="fill:none;stroke-width:1.2;stroke-linecap:butt;stroke-linejoin:miter;stroke:rgb(0%,0%,0%);stroke-opacity:1;stroke-miterlimit:10;" d="M 65.355469 158.476562 L 67.648438 177.65625 "/>
<path style="fill:none;stroke-width:1.2;stroke-linecap:butt;stroke-linejoin:miter;stroke:rgb(100%,0%,0%);stroke-opacity:1;stroke-miterlimit:10;" d="M 47.019531 150.722656 L 58.867188 153.0625 "/>
<path style="fill:none;stroke-width:1.2;stroke-linecap:butt;stroke-linejoin:miter;stroke:rgb(0%,0%,0%);stroke-opacity:1;stroke-miterlimit:10;" d="M 58.867188 153.0625 L 70.710938 155.402344 "/>
<path style="fill:none;stroke-width:1.2;stroke-linecap:butt;stroke-linejoin:miter;stroke:rgb(0%,0%,0%);stroke-opacity:1;stroke-miterlimit:10;" d="M 73.578125 179.378906 L 95.777344 188.882812 "/>
<path style="fill:none;stroke-width:1.2;stroke-linecap:butt;stroke-linejoin:miter;stroke:rgb(0%,0%,0%);stroke-opacity:1;stroke-miterlimit:10;" d="M 73.578125 179.378906 L 62.621094 184.449219 "/>
<path style="fill:none;stroke-width:1.2;stroke-linecap:butt;stroke-linejoin:miter;stroke:rgb(100%,0%,0%);stroke-opacity:1;stroke-miterlimit:10;" d="M 62.621094 184.449219 L 51.664062 189.515625 "/>
<path style="fill:none;stroke-width:1.2;stroke-linecap:butt;stroke-linejoin:miter;stroke:rgb(0%,0%,0%);stroke-opacity:1;stroke-miterlimit:10;" d="M 95.777344 188.882812 L 115.105469 174.410156 "/>
<path style="fill:none;stroke-width:1.2;stroke-linecap:butt;stroke-linejoin:miter;stroke:rgb(0%,0%,0%);stroke-opacity:1;stroke-miterlimit:10;" d="M 94.304688 182.886719 L 109.765625 171.308594 "/>
<path style="fill:none;stroke-width:1.2;stroke-linecap:butt;stroke-linejoin:miter;stroke:rgb(100%,0%,0%);stroke-opacity:1;stroke-miterlimit:10;" d="M 51.664062 189.515625 L 43.457031 180.660156 "/>
<path style="fill:none;stroke-width:1.2;stroke-linecap:butt;stroke-linejoin:miter;stroke:rgb(0%,0%,0%);stroke-opacity:1;stroke-miterlimit:10;" d="M 43.457031 180.660156 L 35.25 171.804688 "/>
<path style=" stroke:none;fill-rule:nonzero;fill:rgb(100%,100%,100%);fill-opacity:1;" d="M 47.664062 184.015625 L 55.664062 184.015625 L 55.664062 195.015625 L 47.664062 195.015625 Z M 47.664062 184.015625 "/>
<g style="fill:rgb(100%,0%,0%);fill-opacity:1;">
  <use xlink:href="#glyph0-3" x="47.664062" y="192.678711"/>
</g>
<path style="fill:none;stroke-width:1.2;stroke-linecap:butt;stroke-linejoin:miter;stroke:rgb(0%,0%,0%);stroke-opacity:1;stroke-miterlimit:10;" d="M 35.25 171.804688 L 41.136719 161.265625 "/>
<path style="fill:none;stroke-width:1.2;stroke-linecap:butt;stroke-linejoin:miter;stroke:rgb(100%,0%,0%);stroke-opacity:1;stroke-miterlimit:10;" d="M 41.136719 161.265625 L 47.019531 150.722656 "/>
<path style=" stroke:none;fill-rule:nonzero;fill:rgb(100%,100%,100%);fill-opacity:1;" d="M 43.019531 145.222656 L 51.019531 145.222656 L 51.019531 156.222656 L 43.019531 156.222656 Z M 43.019531 145.222656 "/>
<g style="fill:rgb(100%,0%,0%);fill-opacity:1;">
  <use xlink:href="#glyph0-3" x="43.019531" y="153.885742"/>
</g>
</g>
</svg>

<svg xmlns="http://www.w3.org/2000/svg" xmlns:xlink="http://www.w3.org/1999/xlink" width="300pt" height="300pt" viewBox="0 0 300 300"><defs><symbol overflow="visible"><path d="M.453 1.594v-7.938h4.5v7.938zm.5-.5h3.5v-6.938h-3.5zm0 0"/></symbol><symbol overflow="visible" id="a"><path d="M.89-6.563H2.08l2.906 5.485v-5.484h.86V0H4.656L1.75-5.484V0H.89zm0 0"/></symbol><symbol overflow="visible" id="b"><path d="M.89-6.563h.876v2.688H5v-2.688h.89V0H5v-3.125H1.766V0H.89zm0 0"/></symbol><symbol overflow="visible" id="c"><path d="M3.547-5.953c-.65 0-1.164.242-1.547.72-.375.48-.563 1.13-.563 1.952 0 .835.188 1.49.563 1.967.383.48.898.72 1.547.72.644 0 1.156-.24 1.53-.72.376-.476.564-1.132.564-1.968 0-.822-.187-1.474-.562-1.954-.375-.477-.887-.72-1.53-.72zm0-.734c.914 0 1.648.312 2.203.937.55.617.828 1.438.828 2.47 0 1.042-.277 1.87-.828 2.483-.555.617-1.29.922-2.203.922-.93 0-1.668-.305-2.22-.922C.774-1.41.5-2.237.5-3.28c0-1.033.273-1.853.828-2.47.55-.625 1.29-.938 2.22-.938zm0 0"/></symbol></defs><g><path fill="#fff" d="M0 0h300v300H0z"/><path d="M239.684 159.504l22.2 9.504M220.355 173.977l19.33-14.473M261.883 169.008l1.433 11.984" stroke-width="1.2" stroke="#000" stroke-miterlimit="10" fill="none"/><path d="M263.316 180.992l1.434 11.988M264.75 192.98l-9.664 7.24" stroke-width="1.2" stroke="#00f" stroke-miterlimit="10" fill="none"/><path d="M255.086 200.22l-9.664 7.233" stroke-width="1.2" stroke="#000" stroke-miterlimit="10" fill="none"/><path d="M257.75 187.48h14v11h-14zm0 0" fill="#fff"/><g fill="#00f"><use xlink:href="#a" x="257.75" y="196.144"/><use xlink:href="#b" x="264.728" y="196.144"/></g><path d="M245.422 207.453l-22.2-9.504M223.223 197.95l-2.868-23.973M220.355 173.977l-11.097-4.754" stroke-width="1.2" stroke="#000" stroke-miterlimit="10" fill="none"/><path d="M209.258 169.223l-11.102-4.75M198.156 164.473l-1.433-11.99" stroke-width="1.2" stroke="#00f" stroke-miterlimit="10" fill="none"/><path d="M196.723 152.484l-1.434-11.988" stroke-width="1.2" stroke="#000" stroke-miterlimit="10" fill="none"/><path d="M191.156 158.973h14v11h-14zm0 0" fill="#fff"/><g fill="#00f"><use xlink:href="#a" x="191.156" y="167.636"/><use xlink:href="#b" x="198.134" y="167.636"/></g><path d="M195.29 140.496l9.663-7.234" stroke-width="1.2" stroke="#000" stroke-miterlimit="10" fill="none"/><path d="M204.953 133.262l9.664-7.24" stroke-width="1.2" stroke="#00f" stroke-miterlimit="10" fill="none"/><path d="M193.816 134.5l7.73-5.785" stroke-width="1.2" stroke="#000" stroke-miterlimit="10" fill="none"/><path d="M201.547 128.715l7.73-5.79" stroke-width="1.2" stroke="#00f" stroke-miterlimit="10" fill="none"/><path d="M173.09 130.992l22.2 9.504" stroke-width="1.2" stroke="#000" stroke-miterlimit="10" fill="none"/><path d="M214.617 126.023l-1.433-11.984" stroke-width="1.2" stroke="#00f" stroke-miterlimit="10" fill="none"/><path d="M213.184 114.04l-1.434-11.99" stroke-width="1.2" stroke="#000" stroke-miterlimit="10" fill="none"/><path d="M211.617 120.523h7v11h-7zm0 0" fill="#fff"/><use xlink:href="#a" x="211.617" y="129.187" fill="#00f"/><path d="M211.75 102.05l-11.102-4.753" stroke-width="1.2" stroke="#000" stroke-miterlimit="10" fill="none"/><path d="M200.648 97.297l-11.097-4.75" stroke-width="1.2" stroke="#00f" stroke-miterlimit="10" fill="none"/><path d="M207.293 106.32l-8.88-3.8" stroke-width="1.2" stroke="#000" stroke-miterlimit="10" fill="none"/><path d="M198.414 102.52l-8.88-3.8M189.55 92.547l-9.663 7.234" stroke-width="1.2" stroke="#00f" stroke-miterlimit="10" fill="none"/><path d="M179.887 99.78l-9.664 7.24" stroke-width="1.2" stroke="#000" stroke-miterlimit="10" fill="none"/><path d="M186.55 87.047h7v11h-7zm0 0" fill="#fff"/><use xlink:href="#a" x="186.551" y="95.71" fill="#00f"/><path d="M170.223 107.02l2.867 23.972M164.867 110.09l2.297 19.18M148.023 97.516l22.2 9.504M173.09 130.992l-19.328 14.473M153.762 145.465l-22.196-9.504M153.777 139.293l-17.757-7.602M131.566 135.96l-2.87-23.972M131.566 135.96l-19.332 14.474M128.695 111.988l19.328-14.472M134.035 115.09l15.46-11.578M112.234 150.434l-22.195-9.5M107.78 154.707l-17.757-7.602M115.105 174.41l-2.87-23.976M90.04 140.934l-19.33 14.468M70.71 155.402l2.868 23.977M65.355 158.477l2.293 19.18" stroke-width="1.2" stroke="#000" stroke-miterlimit="10" fill="none"/><path d="M47.02 150.723l11.847 2.34" stroke-width="1.2" stroke="#f00" stroke-miterlimit="10" fill="none"/><path d="M58.867 153.063l11.844 2.34M73.578 179.38l22.2 9.503M73.578 179.38l-10.957 5.07" stroke-width="1.2" stroke="#000" stroke-miterlimit="10" fill="none"/><path d="M62.62 184.45l-10.956 5.066" stroke-width="1.2" stroke="#f00" stroke-miterlimit="10" fill="none"/><path d="M95.777 188.883l19.328-14.473M94.305 182.887l15.46-11.578" stroke-width="1.2" stroke="#000" stroke-miterlimit="10" fill="none"/><path d="M51.664 189.516l-8.207-8.856" stroke-width="1.2" stroke="#f00" stroke-miterlimit="10" fill="none"/><path d="M43.457 180.66l-8.207-8.855" stroke-width="1.2" stroke="#000" stroke-miterlimit="10" fill="none"/><path d="M47.664 184.016h8v11h-8zm0 0" fill="#fff"/><use xlink:href="#c" x="47.664" y="192.679" fill="#f00"/><path d="M35.25 171.805l5.887-10.54" stroke-width="1.2" stroke="#000" stroke-miterlimit="10" fill="none"/><path d="M41.137 161.266l5.883-10.543" stroke-width="1.2" stroke="#f00" stroke-miterlimit="10" fill="none"/><path d="M43.02 145.223h8v11h-8zm0 0" fill="#fff"/><use xlink:href="#c" x="43.02" y="153.886" fill="#f00"/></g></svg>
